X:195
T:Work Song
C:Nat Adderley - Oscar Brown, Jr.
N:TablEdited by Jim Nikora
L:1/8
Q:1/4=120
M:4/4
K:Eb
|: "Cm7"z2 CC EF2G | z2 GF G2 B2 | z2 CC EF3 | C2 CB, C4 | z2 CC EF2G | z2 GF G2 B2 | 
"Gm7"z2 GG BG2=B | z2 GF G4 | "Cm7"z2 cB (3GFE FE | z2 EC E2 F2 | z2 CC EF2C | 
z2 CB, CC C2 | "C7"_G=G4z C2 | "F7"_GF4z (3CEG | "D7"zF2E "G7#5"(3FEC B,C |1 "Cm6"z8 :|2 "Cm6/9"z8 | 


